X:15823
T:Spil os nue den samme
R:Sonderh\o{}ning
O:Denmark
M:2/4
L:1/8
A:Fan\o{}
K:G
gg/g/ gb/g/ | d2B2 | e>d dd | edd2 |\
gg/g/ gb/g/ | d2dB | GG/G/ GG | A/c/A/F/ G2:|*
|:G2A2 | BB/c/ A2 | GA Bc | dd/c/ BB |\
cc ee | d2dB | GG/G/ GG | A/c/A/F/ G2:|**
